X: 15
T:Wooddicock
M:6/8
L:1/8
Q:110
R:Jig
K:DAeol
d2d f>ed|c2A c2c|d2d f>ed|1 cAA A3:|2 cAA A2d||
c2B c>BA|BGG G2G|AAA A>Bc|1dDD D2d:|2 dDD D3||

